resources/svg/nes.svg

<svg width="15" height="15" viewBox="0 0 15 15" fill="none" xmlns="http://www.w3.org/2000/svg">
<path fill-rule="evenodd" clip-rule="evenodd" d="M0 4.5C0 3.67157 0.671573 3 1.5 3H13.5C14.3284 3 15 3.67157 15 4.5V10.5C15 11.3284 14.3284 12 13.5 12H1.5C0.671573 12 0 11.3284 0 10.5V4.5ZM3 10V9H2V8H3V7H4V8H5V9H4V10H3ZM11 10H12V9H11V10ZM10 10H9V9H10V10Z" fill="black"/>
</svg>

<svg viewBox="0 0 15 15" fill="none" xmlns="http://www.w3.org/2000/svg" fill="currentColor"><path fill-rule="evenodd" clip-rule="evenodd" d="M0 4.5A1.5 1.5 0 011.5 3h12A1.5 1.5 0 0115 4.5v6a1.5 1.5 0 01-1.5 1.5h-12A1.5 1.5 0 010 10.5v-6zM3 10V9H2V8h1V7h1v1h1v1H4v1H3zm8 0h1V9h-1v1zm-1 0H9V9h1v1z" fill="currentColor"/></svg>
